X: 16096
T: Green Forest, The
R: jig
M: 6/8
K: Gmajor
|:ge|dBG GAG|GBd efg|dBG GBd|ecA ABc|
dBG EFG|DGB ABc|ded cAF|AGF G:|
|:Ad|gfg GBd|gbg afd|gfg Bcd|ecA A2 f|
gfe ded|cBc ABc|ded cAF|AGF G:|

